cssgg/home-screen.svg

<svg
  width="24"
  height="24"
  viewBox="0 0 24 24"
  fill="none"
  xmlns="http://www.w3.org/2000/svg"
>
  <path
    d="M10 5C10 5.55228 9.55228 6 9 6C8.44771 6 8 5.55228 8 5C8 4.44772 8.44771 4 9 4C9.55228 4 10 4.44772 10 5Z"
    fill="currentColor"
  />
  <path
    d="M9 9C9.55228 9 10 8.55228 10 8C10 7.44772 9.55228 7 9 7C8.44771 7 8 7.44772 8 8C8 8.55228 8.44771 9 9 9Z"
    fill="currentColor"
  />
  <path
    d="M10 19C10 19.5523 9.55228 20 9 20C8.44771 20 8 19.5523 8 19C8 18.4477 8.44771 18 9 18C9.55228 18 10 18.4477 10 19Z"
    fill="currentColor"
  />
  <path
    d="M9 12C9.55228 12 10 11.5523 10 11C10 10.4477 9.55228 10 9 10C8.44771 10 8 10.4477 8 11C8 11.5523 8.44771 12 9 12Z"
    fill="currentColor"
  />
  <path
    d="M13 5C13 5.55228 12.5523 6 12 6C11.4477 6 11 5.55228 11 5C11 4.44772 11.4477 4 12 4C12.5523 4 13 4.44772 13 5Z"
    fill="currentColor"
  />
  <path
    d="M12 9C12.5523 9 13 8.55228 13 8C13 7.44772 12.5523 7 12 7C11.4477 7 11 7.44772 11 8C11 8.55228 11.4477 9 12 9Z"
    fill="currentColor"
  />
  <path
    d="M13 19C13 19.5523 12.5523 20 12 20C11.4477 20 11 19.5523 11 19C11 18.4477 11.4477 18 12 18C12.5523 18 13 18.4477 13 19Z"
    fill="currentColor"
  />
  <path
    d="M15 6C15.5523 6 16 5.55228 16 5C16 4.44772 15.5523 4 15 4C14.4477 4 14 4.44772 14 5C14 5.55228 14.4477 6 15 6Z"
    fill="currentColor"
  />
  <path
    d="M16 8C16 8.55228 15.5523 9 15 9C14.4477 9 14 8.55228 14 8C14 7.44772 14.4477 7 15 7C15.5523 7 16 7.44772 16 8Z"
    fill="currentColor"
  />
  <path
    d="M15 20C15.5523 20 16 19.5523 16 19C16 18.4477 15.5523 18 15 18C14.4477 18 14 18.4477 14 19C14 19.5523 14.4477 20 15 20Z"
    fill="currentColor"
  />
  <path
    fill-rule="evenodd"
    clip-rule="evenodd"
    d="M8 1C6.34315 1 5 2.34315 5 4V20C5 21.6569 6.34315 23 8 23H16C17.6569 23 19 21.6569 19 20V4C19 2.34315 17.6569 1 16 1H8ZM16 3H8C7.44771 3 7 3.44772 7 4V20C7 20.5523 7.44772 21 8 21H16C16.5523 21 17 20.5523 17 20V4C17 3.44772 16.5523 3 16 3Z"
    fill="currentColor"
  />
</svg>

<svg viewBox="0 0 24 24" xmlns="http://www.w3.org/2000/svg"><g><path d="M10 5c0 .55-.45 1-1 1 -.56 0-1-.45-1-1 0-.56.44-1 1-1 .55 0 1 .44 1 1Z"/><path d="M9 9c.55 0 1-.45 1-1 0-.56-.45-1-1-1 -.56 0-1 .44-1 1 0 .55.44 1 1 1Z"/><path d="M10 19c0 .55-.45 1-1 1 -.56 0-1-.45-1-1 0-.56.44-1 1-1 .55 0 1 .44 1 1Z"/><path d="M9 12c.55 0 1-.45 1-1 0-.56-.45-1-1-1 -.56 0-1 .44-1 1 0 .55.44 1 1 1Z"/><path d="M13 5c0 .55-.45 1-1 1 -.56 0-1-.45-1-1 0-.56.44-1 1-1 .55 0 1 .44 1 1Z"/><path d="M12 9c.55 0 1-.45 1-1 0-.56-.45-1-1-1 -.56 0-1 .44-1 1 0 .55.44 1 1 1Z"/><path d="M13 19c0 .55-.45 1-1 1 -.56 0-1-.45-1-1 0-.56.44-1 1-1 .55 0 1 .44 1 1Z"/><path d="M15 6c.55 0 1-.45 1-1 0-.56-.45-1-1-1 -.56 0-1 .44-1 1 0 .55.44 1 1 1Z"/><path d="M16 8c0 .55-.45 1-1 1 -.56 0-1-.45-1-1 0-.56.44-1 1-1 .55 0 1 .44 1 1Z"/><path d="M15 20c.55 0 1-.45 1-1 0-.56-.45-1-1-1 -.56 0-1 .44-1 1 0 .55.44 1 1 1Z"/><path fill-rule="evenodd" d="M8 1C6.34 1 5 2.34 5 4v16c0 1.65 1.34 3 3 3h8c1.65 0 3-1.35 3-3V4c0-1.66-1.35-3-3-3H8Zm8 2H8c-.56 0-1 .44-1 1v16c0 .55.44 1 1 1h8c.55 0 1-.45 1-1V4c0-.56-.45-1-1-1Z"/></g></svg>
